X:19
T:The boys of Ballisadare
T:The Dublin lasses
P:Dublin lasses is first 2 parts only...
R:Reel
O:Ireland
D:Fiddlesticks CD
D:Round the House
B:O'Neill's 1328
S:O'Neill's 1328
S:Round the House CD (3rd part)
Z:Transcription, arrangement, chords:Mike Long
M:C|
L:1/8
K:F
"F"cF-~F2 cFdF|"F"cFFG "C"AGG2|"F"cF-~F2 cFdF|"C"GBAG "Bb"FD-D2|\
"F"cF-~F2 cFdF|"F"cFFG "C"AGG2|
"Bb"FGAc (3(ded) cA|"C"GBAG "Bb"FDD2|]\
"F"fefg ~a2ag|"F"fefg "Dm"adde|"F"fefg a2ag|"C"fdec "Dm"Add2|
"F"fefg ~a2ag|"F"fefg "Dm"addf|"F"afge f2ed|"C"cAGB "Bb"ADD2|]\
"F"Ac~c2 Acfc|"F"Acfc "C"AGG2|
"F"Ac~c2 "Dm"dAcA|"C"~G2AG "Bb"FDC2|\
"F"Ac~c2 Acfc|"F"Acfc "C"AGGc|"Dm"dA~A2 dAcA|"C"~G2AG "Bb"FDCB|]
